X:1
T:Erstanden ist II
T:Georg Vogler
T:Source : Catechismus---Würzburg---J.Volmari---1652. Editor :  André Vierendeels (29/09/17). 
T:Notes : Original clefs : C1, F4 Original note values have been quartered Text Middle German
T:Erstanden ist II
T:©
C:Georg Vogler
Z:©
%%score [ 1 2 ]
L:1/8
Q:1/4=120
M:3/4
K:F
V:1 treble nm="Soprano" snm="S"
V:2 bass nm="Bass" snm="B"
V:1
 z2 z2 G2 |"^1)" G4 A2 | B4 B2 | c4 c2 | d4 B2 | c4 c2 |"^3)" d4 d2 | d4 e2 | c4 d2 | d2 c4 | %10
w: Er-|stan- den|ist der|lei- lig|Christ, Al-|le- lu-|ja, der|al- ler|Welt ein|Trö- ster|
w: Der|Schlan- gen|Kopff zer-|tret- ten|ist, Al-|le- lu-|ja, zer-|knirscht hat|ihn Herr|Je- sus|
 B4 d2 | c4 B2 | A2 G2 d2 | c4 B2 | G2 G2 c2 | c2 A4 | G6 |] %17
w: ist, er|ist er-|stan- den, von|Tod- tes|Ban- den, Al-|le lu-|ja.|
w: Christ, al-|le: Al-|* le- lu-|ia, Al-|le, Al- *|le- lu-|ja|
V:2
 z2 z2 G,2 |"^2)""^1)" G,4 F,2 | B,,4 B,,2 | F,4 F,2 | B,,4 B,,2 | A,4 F,2 | B,,4 B,,2 | B,,4 C,2 | %8
w: Er-|stan- den|ist der|hei- lig|Christ, Al-|le- lu-|ja, der|al- ler|
w: Der|from- me|Vat- ter|A- bra-|ham, Al-|le- lu-|ja, dein|Feind mit|
 F,,4 B,,2 | B,,2 F,4 | B,,4 B,,2 | F,4 G,2 | D,2 G,,2 B,,2 | F,4 G,2 | D,2 G,,2 G,2 | C,2 D,4 | %16
w: Welt ein|Trö- ster|ist, er|ist er-|stan- den, von|Tod- tes|Ban- den Al-|le- lu-|
w: Macht grosz|Gut ab-|nahm, al-|le: Al-|le- * lu-|ja, Al-|le: Al- le-|* lu-|
 G,,6 |] %17
w: ja.|
w: ja.|

